!!!!SEGMENT: Ric2023-O_quam_dulcis
!!!id: Ric2023
!!!AGN: Motet
!!!voices: 4
!!!COM: Jean Richafort
!!!OTL: O quam dulcis
**kern	**kern	**kern	**kern
*part4	*part3	*part2	*part1
*staff4	*staff3	*staff2	*staff1
*I"Bassus	*I"Tenor	*I"Altus	*I"Superius
*I'B.	*I'T.	*I'A.	*I'S.
*clefF4	*clefGv2	*clefGv2	*clefG2
*k[b-]	*k[b-]	*k[b-]	*k[b-]
*M2/1	*M2/1	*M2/1	*M2/1
*met(C|)	*met(C|)	*met(C|)	*met(C|)
=1	=1	=1	=1
!!section: Prima pars: O quam dulcis
!!!OMD: Prima pars: O quam dulcis
0r	0r	0f	0r
=2	=2	=2	=2
0r	0r	1d	0r
.	.	1e	.
=3	=3	=3	=3
0r	0r	2.f	0cc
.	.	4d	.
.	.	2e	.
.	.	[2f	.
=4	=4	=4	=4
0r	0r	4f]	1a
.	.	4e	.
.	.	4d	.
.	.	4c	.
.	.	1d	1b-y
=5	=5	=5	=5
0r	0r	1c	2.cc
.	.	.	4a
.	.	2r	2b-y
.	.	2c	[2cc
=6	=6	=6	=6
0r	0r	1f	4cc]
.	.	.	4b-y
.	.	.	4a
.	.	.	4g
.	.	1f	1a
=7	=7	=7	=7
0r	0r	2e	1g
.	.	4c	.
.	.	4d	.
.	.	4e	2r
.	.	4f	.
.	.	4g	2g
.	.	4e	.
=8	=8	=8	=8
0r	0r	2f	1.cc
.	.	4e	.
.	.	4d	.
.	.	2c	.
.	.	2d	2b-y
=9	=9	=9	=9
0F	0r	2c	2a
.	.	1d	4f
.	.	.	4g
.	.	.	4a
.	.	.	4b-y
.	.	2c	4cc
.	.	.	4a
=10	=10	=10	=10
1D	0r	2.d	2b-y
.	.	.	1a
.	.	4c	.
1E	.	1B-y	.
.	.	.	2g
=11	=11	=11	=11
2.F	0c	1A	1a
4D	.	.	.
2E	.	2r	1r
[2F	.	2c	.
=12	=12	=12	=12
4F]	1A	1f	0r
4E	.	.	.
4D	.	.	.
4C	.	.	.
1D	1B-y	1f	.
=13	=13	=13	=13
1C	2.c	2.e	0r
.	4A	8dL	.
.	.	8cJ	.
2r	2B-y	2d	.
2C	[2c	2e	.
=14	=14	=14	=14
1F	4c]	1c	0r
.	4B-y	.	.
.	4A	.	.
.	4G	.	.
1F	1A	2r	.
.	.	4c	.
.	.	4d	.
=15	=15	=15	=15
2E	1G	4e	0r
.	.	4d	.
4C	.	4e	.
4D	.	4f	.
4E	2r	4g	.
4F	.	4a	.
4G	2G	[2g	.
4E	.	.	.
=16	=16	=16	=16
2F	1.c	4g]	1r
.	.	4f	.
2A	.	1f	.
1G	.	.	2r
.	2B-y	2e	2g
=17	=17	=17	=17
[0F	2.A	[0f	1.cc
.	4F	.	.
.	2A	.	.
.	2B-y	.	2b-y
=18	=18	=18	=18
0F]	2c	0f]	2a
.	1d	.	4f
.	.	.	4g
.	.	.	4a
.	.	.	4b-y
.	2c	.	4cc
.	.	.	4a
=19	=19	=19	=19
0r	4d	0r	2b-y
.	4c	.	.
.	4B-y	.	1a
.	4A	.	.
.	1B-y	.	.
.	.	.	2g
=20	=20	=20	=20
1r	0A	2r	0a
.	.	2c	.
2r	.	2c	.
2F	.	2c	.
=21	=21	=21	=21
2F	2r	1d	0r
2F	2A	.	.
1E	2c	1e	.
.	2c	.	.
=22	=22	=22	=22
2D	1d	0f	0r
1F	.	.	.
.	[1c	.	.
4E	.	.	.
4D	.	.	.
=23	=23	=23	=23
2C	2c]	2.e	1r
1c	4B-y	.	.
.	4A	8dL	.
.	.	8cJ	.
.	1G	2e	2r
2BnXi	.	[2d	2g
=24	=24	=24	=24
2c	0r	4d]	2g
.	.	4c	.
2C	.	1c	2g
1D	.	.	1f
.	.	2BnXi	.
=25	=25	=25	=25
0C	2r	1c	2e
.	2c	.	1g
.	2c	1r	.
.	2c	.	4f
.	.	.	4e
=26	=26	=26	=26
0r	1B-y	0r	4d
.	.	.	4c
.	.	.	4d
.	.	.	4e
.	2A	.	4f
.	.	.	4g
.	[2c	.	4a
.	.	.	4f
=27	=27	=27	=27
0r	2c]	0r	2g
.	4B-y	.	1f
.	4A	.	.
.	1G	.	.
.	.	.	2e
=28	=28	=28	=28
2r	0F	0r	0f
2c	.	.	.
2c	.	.	.
2c	.	.	.
=29	=29	=29	=29
2B-y	0r	2r	0r
2B-y	.	2f	.
4A	.	2f	.
4G	.	.	.
4A	.	2f	.
4B-y	.	.	.
=30	=30	=30	=30
2c	0r	2e	0r
2C	.	2e	.
4D	.	4d	.
4E	.	4c	.
4F	.	4d	.
4G	.	4e	.
=31	=31	=31	=31
2A	0r	1f	0r
1B-y	.	.	.
.	.	1c	.
2A	.	.	.
=32	=32	=32	=32
4G	0r	4B-y	1b-y
4F	.	4A	.
4E	.	4G	.
4D	.	4F	.
2E	.	2G	2b-y
4F	.	2G	2b-y
4E	.	.	.
=33	=33	=33	=33
1F	1c	1F	2a
.	.	.	2a
1r	2c	1r	4g
.	.	.	4f
.	2c	.	4g
.	.	.	4a
=34	=34	=34	=34
1r	2B-y	0f	2b-y
.	2B-y	.	4f
.	.	.	4g
1F	4A	.	4a
.	4G	.	4b-y
.	4A	.	[2a
.	4B-y	.	.
=35	=35	=35	=35
2F	1.c	2f	2a]
2F	.	2f	4g
.	.	.	4f
2.C	.	2.g	4e
.	.	.	4d
.	2c	.	4e
4D	.	4f	4f
=36	=36	=36	=36
2E	4B-y	4e	2g
.	4A	4d	.
2F	4G	4c	1f
.	4F	4B-y	.
1C	2G	1c	.
.	2G	.	2e
=37	=37	=37	=37
2r	1F	1r	1f
2D	.	.	.
4D	2r	1f	1r
4E	.	.	.
4F	2D	.	.
4G	.	.	.
=38	=38	=38	=38
2A	4D	0f	1r
.	4E	.	.
2A	4F	.	.
.	4G	.	.
1D	2A	.	2r
.	[2B-y	.	2d
=39	=39	=39	=39
0r	2B-]	[0d	4d
.	.	.	4e
.	4A	.	4f
.	4G	.	4g
.	2F	.	2a
.	[2G	.	[2b-y
=40	=40	=40	=40
0r	2G]	0d]	2b-]
.	4F	.	4a
.	4E	.	4g
.	4D	.	4f
.	4E	.	4g
.	4F	.	[2a
.	4G	.	.
=41	=41	=41	=41
0r	4A	1c	4a]
.	4B-y	.	4g
.	1c	.	2e
.	.	1f	2d
.	2B-y	.	[2dd
=42	=42	=42	=42
0r	2c	2e	4dd]
.	.	.	4cc
.	4B-y	4d	1cc
.	4A	4c	.
.	1G	1d	.
.	.	.	2bnXi
=43	=43	=43	=43
2r	0r	1c	0cc
2F	.	.	.
2F	.	2r	.
2F	.	2c	.
=44	=44	=44	=44
2.C	2r	2c	0r
.	2c	2c	.
4BB-y	.	.	.
4C	2c	1G	.
4D	.	.	.
2E	2c	.	.
=45	=45	=45	=45
4E	2.G	1.B-y	0r
4D	.	.	.
4E	.	.	.
4F	4A	.	.
1G	4B-y	.	.
.	4c	.	.
.	[2d	4A	.
.	.	4G	.
=46	=46	=46	=46
4F	2d]	2A	0r
4E	.	.	.
4D	1c	1G	.
4C	.	.	.
1D	.	.	.
.	2BnXi	2F	.
=47	=47	=47	=47
0C	1c	1.G	1.cc
.	[1c	.	.
.	.	4F	2b-y
.	.	4G	.
=48	=48	=48	=48
1.F	2c]	2A	2.a
.	2B-y	2F	.
.	.	.	4g
.	2A	[1f	[1a
2E	2G	.	.
=49	=49	=49	=49
2D	[0A	2f]	2a]
2C	.	2e	8aL
.	.	.	8g
.	.	.	8f
.	.	.	8eJ
2.D	.	2d	2.f
.	.	2c	.
8CL	.	.	8eL
8BB-yJ	.	.	8dJ
=50	=50	=50	=50
0AA	0A]	1e	1c
.	.	2r	2r
.	.	2c	2cc
=51	=51	=51	=51
0r	2r	2d	2a
.	2d	1f	2b-y
.	2c	.	1cc
.	2A	[2e	.
=52	=52	=52	=52
1r	1B-y	2e]	2.f
.	.	2d	.
.	.	.	4g
2r	1A	[1e	4a
.	.	.	4b-y
2c	.	.	[2cc
=53	=53	=53	=53
2.A	0r	1e]	4cc]
.	.	.	4b-y
.	.	.	2a
4B-y	.	.	.
1c	.	2r	2g
.	.	2c	[2a
=54	=54	=54	=54
2.F	0r	2.A	2a]
.	.	.	4g
4G	.	4B-y	4f
4A	.	1c	1e
4B-y	.	.	.
[2c	.	.	.
=55	=55	=55	=55
4c]	0r	2F	0r
4B-y	.	.	.
2A	.	1f	.
1G	.	.	.
.	.	2e	.
=56	=56	=56	=56
1F	1r	1f	1r
1F	1c	2r	1a
.	.	2f	.
=57	=57	=57	=57
2F	2c	2f	2a
2F	2c	2f	2a
1C	1c	1e	1g
=58	=58	=58	=58
1.G	1.B-y	1.d	1.b-y
2G	2B-y	2e	2b-y
=59	=59	=59	=59
[0F	[0c	0f	0a
=60	=60	=60	=60
0F]	0c]	2r	2r
.	.	2c	2f
.	.	2.f	2.a
.	.	4g	4b-y
=61	=61	=61	=61
0r	1r	2a	2cc
.	.	2a	2cc
.	2r	2f	2a
.	2F	[2a	[2cc
=62	=62	=62	=62
1r	2.A	4a]	4cc]
.	.	4g	4b-y
.	.	1f	2a
.	4B-y	.	.
2r	2c	.	1g
2C	2c	2e	.
=63	=63	=63	=63
2.F	1A	1f	1f
4G	.	.	.
2A	2r	2F	1r
2A	2F	[2A	.
=64	=64	=64	=64
1F	2.A	4A]	2r
.	.	4B-y	.
.	.	2c	2f
.	4B-y	.	.
2r	2c	2c	2.a
2F	2d	2A	.
.	.	.	4b-y
=65	=65	=65	=65
2.A	4c	2r	2cc
.	4B-y	.	.
.	4A	2F	2cc
4B-y	4G	.	.
2c	2F	2.A	1f
2c	[2c	.	.
.	.	4B-y	.
=66	=66	=66	=66
2A	4c]	2c	0r
.	4B-y	.	.
1F	1A	2c	.
.	.	2A	.
4E	4G	[2c	.
4D	4F	.	.
=67	=67	=67	=67
4E	2G	4c]	0r
4D	.	4B-y	.
4C	1F	1B-y	.
4BB-y	.	.	.
1C	.	.	.
.	2E	2A	.
=68	=68	=68	=68
0BB-y	0F	1B-y	1r
.	.	2r	1f
.	.	2B-y	.
=69	=69	=69	=69
0r	1r	2B-y	2f
.	.	2A	2f
.	2r	4G	2e
.	.	4A	.
.	2B-y	4B-y	2d
.	.	4c	.
=70	=70	=70	=70
0r	2B-y	1d	2.f
.	2B-y	.	.
.	.	.	4g
.	2A	1r	2a
.	2G	.	[2b-y
=71	=71	=71	=71
0r	2.c	1r	4b-]
.	.	.	4a
.	.	.	1a
.	4c	.	.
.	2B-y	2r	.
.	2B-y	2d	2g
=72	=72	=72	=72
2r	0A	2c	0a
2D	.	2d	.
2F	.	4A	.
.	.	4B-y	.
2F	.	4c	.
.	.	4d	.
=73	=73	=73	=73
2E	0r	2e	0r
2D	.	2.f	.
2.F	.	.	.
.	.	4e	.
.	.	2d	.
4G	.	.	.
=74	=74	=74	=74
2A	0r	2c	0r
2.B-y	.	2.d	.
4A	.	4c	.
[2A	.	4B-y	.
.	.	4A	.
=75	=75	=75	=75
2A]	0r	2B-y	0r
2G	.	2B-y	.
1A	.	1A	.
=76	=76	=76	=76
1F	1A	1f	1cc
2F	2A	2f	2cc
2F	2A	2f	2cc
=77	=77	=77	=77
1G	1B-y	4d	1b-y
.	.	4c	.
.	.	4d	.
.	.	4e	.
1F	2c	1f	1a
.	2c	.	.
=78	=78	=78	=78
2r	2c	2r	2r
2F	2c	2f	2a
2F	[1d	2f	2a
2F	.	2f	2a
=79	=79	=79	=79
1G	2d]	2d	1b-y
.	2B-y	2.e	.
2E	4c	.	2g
.	4B-y	4d	.
2F	4A	[2c	[2a
.	4G	.	.
=80	=80	=80	=80
1D	4F	4c]	4a]
.	4E	4B-y	4g
.	2F	4B-y	1f
.	.	4A	.
1C	1G	1c	.
.	.	.	2e
=81	=81	=81	=81
1F	2F	2A	2f
.	2A	2f	2cc
2F	2A	2f	2cc
2F	2A	2f	2cc
=82	=82	=82	=82
1G	1B-y	4d	1b-y
.	.	4c	.
.	.	4d	.
.	.	4e	.
1F	2c	1f	1a
.	2c	.	.
=83	=83	=83	=83
2r	2c	2r	2r
2F	2c	2f	2a
2F	[1d	2f	2a
2F	.	2f	2a
=84	=84	=84	=84
1G	2d]	2d	1b-y
.	2B-y	2.e	.
2E	4c	.	2g
.	4B-y	4d	.
2F	4A	[2c	[2a
.	4G	.	.
=85	=85	=85	=85
1D	4F	4c]	4a]
.	4E	4B-y	4g
.	2F	4B-y	1f
.	.	4A	.
1C	1G	1c	.
.	.	.	2e
=86	=86	=86	=86
0Fl	0Fl	0Al	0fl
=87||	=87||	=87||	=87||
*M3/2	*M3/2	*M3/2	*M3/2
*met(C|3)	*met(C|3)	*met(C|3)	*met(C|3)
*Xtuplet	*Xtuplet	*Xtuplet	*Xtuplet
!!section: Secunda pars: Ecce quam bonum
!!!OMD: Secunda pars: Ecce quam bonum
3%4.r	3%4.r	3%4c	3%4.r
.	.	.	.
.	.	3%2c	.
=88	=88	=88	=88
3%4.r	3%4.r	3d	3%4a
.	.	3e	.
.	.	3f	.
.	.	3d	.
.	.	3%2e	3%2a
=89	=89	=89	=89
3%2r	3%4.r	3%4f	3%2f
3%2C	.	.	3%4a
3%2C	.	3%2e	.
=90	=90	=90	=90
3D	3%4A	3%4f	3%4f
3E	.	.	.
3F	.	.	.
3D	.	.	.
3%2E	3%2G	3%2r	3%2r
=91	=91	=91	=91
3%4F	3%2F	3%4.r	3%4.r
.	3%4G	.	.
3%2E	.	.	.
=92	=92	=92	=92
3%4.F	3%4.F	3%2r	3%4.r
.	.	3%2c	.
.	.	3%2c	.
=93	=93	=93	=93
3%4.r	3%4.r	3d	3%4a
.	.	3e	.
.	.	3f	.
.	.	3d	.
.	.	3%2e	3%2g
=94	=94	=94	=94
3%2r	3%4.r	3%4f	3%2f
3%2C	.	.	3%4g
3%2C	.	3%2e	.
=95	=95	=95	=95
3D	3%4A	3%4f	3%4f
3E	.	.	.
3F	.	.	.
3D	.	.	.
3%2E	3%2G	3%2r	3%2r
=96	=96	=96	=96
3%4F	3%2F	3%4.r	3%4.r
.	3%4G	.	.
3%2E	.	.	.
=97	=97	=97	=97
3%4F	3%4F	3%2r	3%2r
.	.	3%2r	3%2a
3%2r	3%2r	3%2e	3%2cc
=98	=98	=98	=98
3%2r	3%2r	3%2g	3%2b-y
3%2r	3%2A	3%2f	3%2a
3%2E	3%2c	3%2e	3%2r
=99	=99	=99	=99
3%2G	3%2B-y	3%2r	3%2r
3%2F	3%2A	3%2r	3%2a
3%2E	3%2r	3%2e	3%2b-y
=100	=100	=100	=100
3%4.r	3%4.r	3%2g	3%2b-y
.	.	3%2f	3%2a
.	.	3%2e	3%2r
=101	=101	=101	=101
3%4F	3%4A	3%4c	3%2.a
.	.	.	6g
.	.	.	6f
3%2C	3%2G	3%2c	3%2e
=102	=102	=102	=102
3%2D	3%2F	3%2B-y	3%4f
3%4C	3%4G	3%4c	.
.	.	.	3%2e
=103	=103	=103	=103
3%4F	3%4F	3%2A	3%2f
.	.	3%2r	3%2a
3%2r	3%2r	3%2e	3%2cc
=104	=104	=104	=104
3%2r	3%2r	3%2g	3%2b-y
3%2r	3%2A	3%2f	3%2a
3%2E	3%2c	3%2e	3%2r
=105	=105	=105	=105
3%2G	3%2B-y	3%2r	3%2r
3%2F	3%2A	3%2r	3%2a
3%2E	3%2r	3%2e	3%2cc
=106	=106	=106	=106
3%4.r	3%4.r	3%2g	3%2b-y
.	.	3%2f	3%2a
.	.	3%2e	3%2r
=107	=107	=107	=107
3%4F	3%4A	3%4c	3%2.a
.	.	.	6g
.	.	.	6f
3%2C	3%2G	3%2c	3%2e
=108	=108	=108	=108
3%2D	3%2F	3%2B-y	3%4f
3%4C	3%4G	3%4c	.
.	.	.	3%2e
=109	=109	=109	=109
*tuplet	*tuplet	*tuplet	*tuplet
*M2/1	*M2/1	*M2/1	*M2/1
*met(C|)	*met(C|)	*met(C|)	*met(C|)
0F	1F	[0A	[0f
.	2r	.	.
.	2c	.	.
=110	=110	=110	=110
2r	2c	0A]	0f]
2F	2c	.	.
2F	2.d	.	.
2F	.	.	.
.	4c	.	.
=111	=111	=111	=111
2.G	2B-y	1r	0r
.	2A	.	.
4F	.	.	.
4E	2G	2r	.
4D	.	.	.
2C	[2e	2c	.
=112	=112	=112	=112
2E	4e]	2c	2r
.	4d	.	.
2F	2.c	2c	2f
1D	.	1d	2f
.	4BnXi	.	.
.	4BnXi	.	2f
.	4A	.	.
=113	=113	=113	=113
1C	1c	1e	1g
1r	1r	2c	2e
.	.	[2d	[2f
=114	=114	=114	=114
0r	2r	4d]	4f]
.	.	4c	4e
.	2G	4B-y	4d
.	.	4A	4c
.	2G	1B-y	1d
.	2G	.	.
=115	=115	=115	=115
2r	1A	1c	2c
2F	.	.	2cc
2F	2r	2r	2cc
2F	2A	2f	[2dd
=116	=116	=116	=116
2.G	2B-y	2d	4dd]
.	.	.	4cc
.	2B-y	2.g	4b-y
4F	.	.	4a
4E	[1c	.	2g
4D	.	4f	.
2C	.	[2e	2cc
=117	=117	=117	=117
2E	2c]	4e]	4cc
.	.	4d	4b-y
2F	8cL	1c	1a
.	8B-y	.	.
.	8A	.	.
.	8GJ	.	.
1D	1F	.	.
.	.	2B-y	4e
.	.	.	4d
=118	=118	=118	=118
0C;	0G;	0c;	0e;
=119	=119	=119	=119
0Fl	0Fl	0cl	0fl
==	==	==	==
*-	*-	*-	*-
!!!system-decoration: s1,s2,s3,s4
!!!RDF**kern: i = editorial accidental
!!!RDF**kern: l = terminal long
!!!ENC: Janosch Umbreit
!!!END: 2026/01/30
!!!EED: Benjamin Ory
!!!EEV: 2026/02/10
!!!YEC: Copyright 2026 Benjamin Ory, All Rights Reserved
!!!ONB: Translated from MusicXML on 2026/02/10
